X:38
T:Cowhide Boots
C:from Lyman Enloe
S:taught by Chirps Smith, 7/2/13, Fiddle Tunes
Z:original-transcription-by Sande Gillette
Z:abc-transcription Josh Larios <hades@elsewhere.org>, 2014.01.26
M:4/4
L:1/8
K:G
|: (3DEF | G2GB AG FD | G2GD B,2D2 | G2 B2 de dB | AG FG A2 (3DEF |
G2GB AG FD | G2GD B,2D2 | CD EC DF Ac | BG AF G2 :|
|: ef | g2g2d2d2 | Bd BA G2G2 | AB cA FD EF | GA Bc d2 ef |
g2g2d2d2 | Bd BA G2G2 | AB cA FD EF | G2G2G2 :|

